assets/images/containers/jboss.svg

<?xml version="1.0" encoding="UTF-8" standalone="no"?>
<!DOCTYPE svg PUBLIC "-//W3C//DTD SVG 1.0//EN" "http://www.w3.org/TR/2001/REC-SVG-20010904/DTD/svg10.dtd">
<!-- Created with Inkscape (http://www.inkscape.org/) by Marsupilami -->
<svg
   xmlns:svg="http://www.w3.org/2000/svg"
   xmlns="http://www.w3.org/2000/svg"
   version="1.0"
   width="1024"
   height="598"
   viewBox="-5.6490354 -5.6490354 342.0329308 199.5992508"
   id="svg3076">
  <defs
     id="defs3078" />
  <path
     d="M 215.23289,169.63836 L 219.75227,178.70505 L 215.92802,178.70505 L 211.53447,169.92463 L 206.53934,169.92463 L 206.53934,178.70505 L 203.28444,178.70505 L 203.28444,156.51313 L 212.98772,156.51313 C 216.84574,156.51313 220.10064,158.57395 220.10064,163.14039 C 220.10064,166.68949 218.2361,168.87805 215.23289,169.63836 z M 212.98772,159.6513 L 206.53934,159.6513 L 206.53934,166.78491 L 212.98772,166.78491 C 215.20062,166.78491 216.74906,165.64446 216.74906,163.23426 C 216.74906,160.9195 215.23289,159.6513 212.98772,159.6513 z"
     id="path2565"
     style="fill:#cc0000;fill-opacity:1;fill-rule:nonzero;stroke:none" />
  <path
     d="M 238.11535,171.54219 L 227.14601,171.54219 C 227.49436,174.74348 229.296,176.10709 231.32011,176.10709 C 232.71047,176.10709 233.81694,175.60074 234.92337,174.77579 L 236.85237,176.86739 C 235.3991,178.2618 233.6604,179.05441 231.12984,179.05441 C 227.24266,179.05441 223.95402,175.91625 223.95402,170.4002 C 223.95402,164.75641 226.92655,161.71213 231.22345,161.71213 C 235.93315,161.71213 238.2105,165.5475 238.2105,170.05083 C 238.2105,170.65108 238.14757,171.19283 238.11535,171.54219 z M 231.00247,164.66099 C 228.82024,164.66099 227.49282,166.1816 227.20739,168.84574 L 234.92031,168.84574 C 234.76377,166.56329 233.68955,164.66099 231.00247,164.66099 z"
     id="path2575"
     style="fill:#cc0000;fill-opacity:1;fill-rule:nonzero;stroke:none" />
  <path
     d="M 252.24292,178.70505 L 252.24292,177.12134 C 251.04134,178.23101 249.65097,179.05441 247.91226,179.05441 C 244.33971,179.05441 241.52676,176.45646 241.52676,170.11394 C 241.52676,164.40704 244.62516,161.71213 248.07034,161.71213 C 249.74612,161.71213 251.32675,162.60018 252.24445,163.61443 L 252.24445,157.27344 L 255.46866,155.59276 L 255.46866,178.70505 L 252.24292,178.70505 z M 252.27516,166.91266 C 251.54776,165.92919 250.03001,164.72409 248.38645,164.72409 C 246.04771,164.72409 244.78321,166.50019 244.78321,170.01851 C 244.78321,174.20325 246.11062,176.04091 248.51384,176.04091 C 250.06226,176.04091 251.42192,174.99434 252.27516,173.91853 L 252.27516,166.91266 z"
     id="path2585"
     style="fill:#cc0000;fill-opacity:1;fill-rule:nonzero;stroke:none" />
  <path
     d="M 282.77542,178.70505 L 282.77542,168.75031 L 272.59485,168.75031 L 272.59485,178.70505 L 269.27702,178.70505 L 269.27702,156.51313 L 272.59485,156.51313 L 272.59485,165.4844 L 282.77542,165.4844 L 282.77542,156.51313 L 286.09321,156.51313 L 286.09321,178.70505 L 282.77542,178.70505 z"
     id="path2595"
     style="fill:#cc0000;fill-opacity:1;fill-rule:nonzero;stroke:none" />
  <path
     d="M 300.88221,178.70505 L 300.88221,177.05824 C 299.74507,178.19869 298.13217,179.05441 296.33057,179.05441 C 293.64349,179.05441 290.57735,177.53381 290.57735,173.44295 C 290.57735,169.73378 293.42247,168.05311 297.18381,168.05311 C 298.73375,168.05311 299.96605,168.27474 300.88221,168.68721 L 300.88221,167.44979 C 300.88221,165.64293 299.77574,164.62868 297.75315,164.62868 C 296.04666,164.62868 294.7177,164.94573 293.42247,165.67524 L 292.15797,163.20349 C 293.73862,162.22001 295.50956,161.71213 297.8483,161.71213 C 301.54669,161.71213 304.07725,163.519 304.07725,167.29281 L 304.07725,178.70505 L 300.88221,178.70505 L 300.88221,178.70505 z M 300.88221,171.6053 C 299.99827,171.1605 298.85959,170.87424 297.08866,170.87424 C 295.00312,170.87424 293.67417,171.82539 293.67417,173.34753 C 293.67417,174.99434 294.7177,176.10555 296.86615,176.10555 C 298.60639,176.10555 300.12259,175.0282 300.88067,173.98163 L 300.88067,171.6053 L 300.88221,171.6053 z"
     id="path2605"
     style="fill:#cc0000;fill-opacity:1;fill-rule:nonzero;stroke:none" />
  <path
     d="M 316.68557,178.29258 C 315.89371,178.73736 314.78879,179.05288 313.49205,179.05288 C 311.184,179.05288 309.76142,177.6277 309.76142,174.64651 L 309.76142,165.04114 L 307.39046,165.04114 L 307.39046,162.05995 L 309.76142,162.05995 L 309.76142,157.30421 L 312.95495,155.59276 L 312.95495,162.05995 L 317.06461,162.05995 L 317.06461,165.04114 L 312.95495,165.04114 L 312.95495,174.07705 C 312.95495,175.62998 313.45982,176.07476 314.66144,176.07476 C 315.51467,176.07476 316.46305,175.75773 317.06306,175.40835 L 316.68557,178.29258 z"
     id="path2615"
     style="fill:#cc0000;fill-opacity:1;fill-rule:nonzero;stroke:none" />
  <path
     d="M 163.26502,78.53129 C 168.74356,75.78096 172.47265,70.68048 172.47265,64.40105 C 172.47265,49.76598 159.25357,46.61704 147.2054,46.82328 L 114.69326,46.82328 L 114.50757,46.82328 L 96.48211,46.82328 L 96.48211,93.55266 C 96.48211,100.33844 94.12342,102.68861 89.92321,102.68861 C 85.40994,102.68861 82.8717,100.14298 82.8717,95.5196 L 82.8717,89.04779 L 65.73017,89.04779 L 65.73017,92.07823 C 65.73017,107.706 71.70285,118.39486 90.21019,118.39486 C 105.30609,118.39486 113.28756,111.69065 114.50757,98.45154 L 114.50757,116.92659 L 148.08319,116.92659 C 163.06246,116.92659 175.30246,111.82455 175.30246,95.13175 C 175.30246,87.18243 170.71246,80.70139 163.26502,78.53129 z M 132.72332,60.95505 L 146.81252,60.95505 C 150.6383,60.95505 154.25844,62.63573 154.25844,67.73468 C 154.25844,72.74129 149.95232,74.41119 146.81252,74.41119 L 132.72332,74.41119 L 132.72332,60.95505 z M 147.30514,102.30076 L 132.72332,102.30076 L 132.72332,86.18819 L 147.30514,86.18819 C 152.79289,86.18819 157.10205,88.25824 157.10205,94.42994 C 157.10205,100.23224 153.08599,102.30076 147.30514,102.30076 z"
     id="path2625"
     style="fill:#cc0000;fill-opacity:1;fill-rule:nonzero;stroke:none" />
  <path
     d="M 138.21721,166.83416 C 138.21721,154.99099 128.63361,145.36869 116.81869,145.36869 C 104.98075,145.36869 95.40329,154.99099 95.40329,166.83416 C 95.40329,178.69889 104.98075,188.30118 116.81869,188.30118 C 128.63361,188.30118 138.21721,178.69889 138.21721,166.83416 z"
     id="path2635"
     style="fill:#cc0000;fill-opacity:1;fill-rule:nonzero;stroke:none" />
  <path
     d="M 81.35245,160.06224 C 81.35245,149.56883 72.86147,141.0562 62.38934,141.0562 C 51.91874,141.0562 43.4339,149.56729 43.4339,160.06224 C 43.4339,170.56488 51.9172,179.08059 62.38934,179.08059 C 72.86147,179.08059 81.35245,170.56488 81.35245,160.06224 z"
     id="path2645"
     style="fill:#cc0000;fill-opacity:1;fill-rule:nonzero;stroke:none" />
  <path
     d="M 38.51396,125.71163 C 38.51396,116.23555 30.8655,108.5494 21.40312,108.5494 C 11.93769,108.5494 4.27694,116.23555 4.27694,125.71163 C 4.27694,135.21386 11.93769,142.90001 21.40312,142.90001 C 30.86396,142.90001 38.51396,135.21386 38.51396,125.71163 z"
     id="path2655"
     style="fill:#cc0000;fill-opacity:1;fill-rule:nonzero;stroke:none" />
  <path
     d="M 30.56625,77.90028 C 30.56625,69.42613 23.72959,62.57724 15.28926,62.57724 C 6.85047,62.57724 0,69.42459 0,77.90028 C 0,86.36519 6.85047,93.23561 15.28926,93.23561 C 23.72959,93.23561 30.56625,86.36364 30.56625,77.90028 z"
     id="path2665"
     style="fill:#cc0000;fill-opacity:1;fill-rule:nonzero;stroke:none" />
  <path
     d="M 51.9924,34.96624 C 51.9924,27.85725 46.22842,22.09034 39.14469,22.09034 C 32.05635,22.09034 26.30159,27.85725 26.30159,34.96624 C 26.30159,42.08138 32.05635,47.84368 39.14469,47.84368 C 46.22842,47.84368 51.9924,42.08138 51.9924,34.96624 z"
     id="path2675"
     style="fill:#cc0000;fill-opacity:1;fill-rule:nonzero;stroke:none" />
  <path
     d="M 88.66944,15.95098 C 88.66944,9.51764 83.4748,4.29864 77.05862,4.29864 C 70.64397,4.29864 65.44014,9.51764 65.44014,15.95098 C 65.44014,22.39508 70.64551,27.61408 77.05862,27.61408 C 83.47634,27.61408 88.66944,22.39508 88.66944,15.95098 z"
     id="path2685"
     style="fill:#cc0000;fill-opacity:1;fill-rule:nonzero;stroke:none" />
  <path
     d="M 127.20489,9.81468 C 127.20489,4.39406 122.8328,0 117.42332,0 C 112.02765,0 107.63715,4.39406 107.63715,9.81468 C 107.63715,15.24146 112.02765,19.63398 117.42332,19.63398 C 122.8328,19.63398 127.20489,15.24146 127.20489,9.81468 z"
     id="path2695"
     style="fill:#cc0000;fill-opacity:1;fill-rule:nonzero;stroke:none" />
  <path
     d="M 306.505,86.49293 C 298.87034,84.82765 287.19812,83.94729 287.19812,79.12538 C 287.19812,75.5855 291.61625,75.29769 294.3494,75.29769 C 296.40422,75.29769 298.25345,75.69478 299.63917,76.57051 C 300.99579,77.45701 301.78149,78.83295 301.78149,80.9815 L 317.15669,80.9815 C 316.56586,67.73623 304.91054,64.49185 293.77085,64.49185 C 284.48956,64.49185 272.43217,67.38839 270.76406,77.63555 C 268.48516,67.19908 257.95932,64.49185 247.83246,64.49185 C 237.84217,64.49185 224.10595,67.83473 224.10595,80.1073 C 224.10595,80.32431 224.13817,80.509 224.1428,80.71985 C 220.2679,71.02984 211.11399,64.49185 199.33897,64.49185 C 186.60329,64.49185 177.08106,71.95175 173.86146,82.95459 C 176.32297,86.27591 177.61817,90.60841 177.61817,95.13175 C 177.61817,98.84554 177.02889,102.133 175.91324,105.01108 C 180.29146,113.12661 188.71644,118.39486 199.33897,118.39486 C 210.62445,118.39486 219.47759,112.43556 223.60874,103.4366 C 225.77866,114.99351 237.05496,118.39486 248.09642,118.39486 C 257.59101,118.39486 268.07697,115.27516 271.39017,106.43318 C 274.82002,115.58913 285.03281,118.39486 295.05532,118.39486 C 306.50654,118.39486 319.43405,113.88384 319.43405,100.23224 C 319.4325,96.0121 316.77764,88.56144 306.505,86.49293 z M 199.33897,105.6344 C 191.59689,105.6344 189.24434,97.9852 189.24434,91.49493 C 189.24434,85.02311 191.59689,77.25078 199.33897,77.25078 C 207.07184,77.25078 209.51801,85.02465 209.51801,91.49493 C 209.51646,97.98674 207.07184,105.6344 199.33897,105.6344 z M 247.9982,107.58748 C 245.65332,107.58748 243.39439,107.01494 241.82602,105.82986 C 240.17172,104.55396 239.08217,102.68861 239.08217,100.14298 L 224.87479,100.14298 C 225.70501,97.44651 226.16387,94.54998 226.16387,91.49493 C 226.16387,90.06973 226.03649,88.68765 225.8508,87.33018 C 229.74409,94.06364 239.51645,94.71928 247.70815,96.80011 C 250.63312,97.47884 255.82774,98.27761 255.82774,102.19456 C 255.82774,106.22694 251.21627,107.58748 247.9982,107.58748 z M 294.95556,107.58748 C 292.61221,107.58748 290.35482,107.01494 288.78494,105.82986 C 287.13061,104.55396 286.04105,102.68861 286.04105,100.14298 L 272.47207,100.14298 C 272.4368,95.90899 269.75124,88.54759 259.5461,86.49293 C 251.91297,84.82765 240.7518,83.94729 240.7518,79.12538 C 240.7518,75.5855 245.67941,75.29769 248.41254,75.29769 C 250.46891,75.29769 252.31659,75.69478 253.70232,76.57051 C 255.06044,77.45701 255.84464,78.83295 255.84464,80.9815 L 270.60755,80.9815 C 271.1999,93.83893 284.41744,94.19753 294.66554,96.80165 C 297.59202,97.48038 302.7851,98.27915 302.7851,102.1961 C 302.78665,106.22694 298.17362,107.58748 294.95556,107.58748 z"
     id="path2705"
     style="fill:#61615c;fill-opacity:1;fill-rule:nonzero;stroke:none" />
  <path
     d="M 320.92721,55.65294 L 322.4081,55.65294 L 324.63636,59.32518 L 326.08041,59.32518 L 323.66955,55.58523 C 324.90796,55.42824 325.84869,54.76951 325.84869,53.26276 C 325.84869,51.57131 324.86961,50.8418 322.87462,50.8418 L 319.6489,50.8418 L 319.6489,59.32518 L 320.92721,59.32518 L 320.92721,55.65294 z M 320.92721,54.55404 L 320.92721,51.92069 L 322.68126,51.92069 C 323.5514,51.92069 324.52279,52.12385 324.52279,53.17503 C 324.52279,54.47863 323.5514,54.55404 322.46795,54.55404 L 320.92721,54.55404 z"
     id="path2715"
     style="fill:#61615c;fill-opacity:1;fill-rule:nonzero;stroke:none" />
  <path
     d="M 330.73487,55.09888 C 330.73487,59.68531 327.02114,63.39756 322.44954,63.39756 C 317.86721,63.39756 314.15346,59.68531 314.15346,55.09888 C 314.15346,50.50166 317.86721,46.78018 322.44954,46.78018 C 327.02114,46.78171 330.73487,50.50166 330.73487,55.09888 z M 322.448,48.25923 C 318.66675,48.25923 315.61594,51.30968 315.61594,55.09888 C 315.61594,58.87115 318.66675,61.92005 322.448,61.92005 C 326.20776,61.92005 329.25857,58.87115 329.25857,55.09888 C 329.26012,51.30968 326.20776,48.25923 322.448,48.25923 z"
     id="path2725"
     style="fill:#61615c;fill-opacity:1;fill-rule:nonzero;stroke:none" />
  <path
     d="M 166.08562,179.05288 C 164.40984,179.05288 162.8292,178.16638 161.91304,177.15213 L 161.91304,178.70505 L 158.6873,178.70505 L 158.6873,157.27344 L 161.91304,155.59276 L 161.91304,163.6452 C 163.1131,162.53399 164.50345,161.71059 166.24369,161.71059 C 169.81471,161.71059 172.62765,164.31008 172.62765,170.65108 C 172.62765,176.3595 169.53081,179.05288 166.08562,179.05288 z M 165.64212,164.72409 C 164.09217,164.72409 162.73251,165.77066 161.88081,166.84955 L 161.88081,173.85543 C 162.60821,174.83889 164.1244,176.04245 165.76796,176.04245 C 168.1067,176.04245 169.37275,174.26944 169.37275,170.74958 C 169.37275,166.56329 168.04531,164.72409 165.64212,164.72409 z"
     id="path2735"
     style="fill:#61615c;fill-opacity:1;fill-rule:nonzero;stroke:none" />
  <path
     d="M 182.48747,184.57046 L 179.04229,184.57046 L 181.44395,178.388 L 175.34236,162.05995 L 178.91492,162.05995 L 181.6327,170.20935 C 182.13759,171.66686 182.89721,174.14015 183.08597,175.05744 C 183.37141,174.07551 184.06659,171.69764 184.57147,170.27246 L 187.38594,162.05995 L 190.83112,162.05995 L 182.48747,184.57046 z"
     id="path2745"
     style="fill:#61615c;fill-opacity:1;fill-rule:nonzero;stroke:none" />
</svg>
<!-- version: 20090314, original size: 330.73486 188.30118, border: 3% -->

<?xml version="1.0" encoding="UTF-8"?>
<!DOCTYPE svg  PUBLIC '-//W3C//DTD SVG 1.0//EN'  'http://www.w3.org/TR/2001/REC-SVG-20010904/DTD/svg10.dtd'>
<svg width="1024" height="598" version="1.0" viewBox="-5.649 -5.649 342.03 199.6" xmlns="http://www.w3.org/2000/svg">
<path d="m215.23 169.64 4.5194 9.0667h-3.8242l-4.3936-8.7804h-4.9951v8.7804h-3.2549v-22.192h9.7033c3.858 0 7.1129 2.0608 7.1129 6.6273 0 3.5491-1.8645 5.7377-4.8678 6.498zm-2.2452-9.9871h-6.4484v7.1336h6.4484c2.2129 0 3.7613-1.1404 3.7613-3.5506 0-2.3148-1.5162-3.583-3.7613-3.583z" fill="#c00"/>
<path d="m238.12 171.54h-10.969c0.34835 3.2013 2.15 4.5649 4.1741 4.5649 1.3904 0 2.4968-0.50635 3.6033-1.3313l1.929 2.0916c-1.4533 1.3944-3.192 2.187-5.7225 2.187-3.8872 0-7.1758-3.1382-7.1758-8.6542 0-5.6438 2.9725-8.6881 7.2694-8.6881 4.7097 0 6.987 3.8354 6.987 8.3387 0 0.60025-0.06293 1.142-0.09515 1.4914zm-7.1129-6.8812c-2.1822 0-3.5096 1.5206-3.7951 4.1848h7.7129c-0.15654-2.2824-1.2308-4.1848-3.9178-4.1848z" fill="#c00"/>
<path d="m252.24 178.71v-1.5837c-1.2016 1.1097-2.592 1.9331-4.3307 1.9331-3.5726 0-6.3855-2.598-6.3855-8.9405 0-5.7069 3.0984-8.4018 6.5436-8.4018 1.6758 0 3.2564 0.88805 4.1741 1.9023v-6.341l3.2242-1.6807v23.112h-3.2257zm0.03224-11.792c-0.7274-0.98347-2.2452-2.1886-3.8887-2.1886-2.3387 0-3.6032 1.7761-3.6032 5.2944 0 4.1847 1.3274 6.0224 3.7306 6.0224 1.5484 0 2.9081-1.0466 3.7613-2.1224v-7.0059z" fill="#c00"/>
<path d="m282.78 178.71v-9.9547h-10.181v9.9547h-3.3178v-22.192h3.3178v8.9713h10.181v-8.9713h3.3178v22.192h-3.3178z" fill="#c00"/>
<path d="m300.88 178.71v-1.6468c-1.1371 1.1404-2.75 1.9962-4.5516 1.9962-2.6871 0-5.7532-1.5206-5.7532-5.6115 0-3.7092 2.8451-5.3898 6.6065-5.3898 1.5499 0 2.7822 0.22163 3.6984 0.6341v-1.2374c0-1.8069-1.1065-2.8211-3.1291-2.8211-1.7065 0-3.0354 0.31705-4.3307 1.0466l-1.2645-2.4718c1.5806-0.98348 3.3516-1.4914 5.6903-1.4914 3.6984 0 6.229 1.8069 6.229 5.5807v11.412h-3.195zm0-7.0998c-0.88394-0.4448-2.0226-0.73106-3.7936-0.73106-2.0855 0-3.4145 0.95115-3.4145 2.4733 0 1.6468 1.0435 2.758 3.192 2.758 1.7402 0 3.2564-1.0774 4.0145-2.1239v-2.3763h0.00154z" fill="#c00"/>
<path d="m316.69 178.29c-0.79186 0.44478-1.8968 0.7603-3.1935 0.7603-2.308 0-3.7306-1.4252-3.7306-4.4064v-9.6054h-2.371v-2.9812h2.371v-4.7557l3.1935-1.7114v6.4672h4.1097v2.9812h-4.1097v9.0359c0 1.5529 0.50487 1.9977 1.7065 1.9977 0.85323 0 1.8016-0.31703 2.4016-0.66641l-0.37749 2.8842z" fill="#c00"/>
<path d="m163.27 78.531c5.4785-2.7503 9.2076-7.8508 9.2076-14.13 0-14.635-13.219-17.784-25.267-17.578h-32.512-0.18569-18.025v46.729c0 6.7858-2.3587 9.136-6.5589 9.136-4.5133 0-7.0515-2.5456-7.0515-7.169v-6.4718h-17.142v3.0304c0 15.628 5.9727 26.317 24.48 26.317 15.096 0 23.077-6.7042 24.297-19.943v18.475h33.576c14.979 0 27.219-5.102 27.219-21.795 0-7.9493-4.59-14.43-12.037-16.6zm-30.542-17.576h14.089c3.8258 0 7.4459 1.6807 7.4459 6.7796 0 5.0066-4.3061 6.6765-7.4459 6.6765h-14.089v-13.456zm14.582 41.346h-14.582v-16.113h14.582c5.4878 0 9.7969 2.07 9.7969 8.2418 0 5.8023-4.0161 7.8708-9.7969 7.8708z" fill="#c00"/>
<path d="m138.22 166.83c0-11.843-9.5836-21.465-21.399-21.465-11.838 0-21.415 9.6223-21.415 21.465 0 11.865 9.5775 21.467 21.415 21.467 11.815 0 21.399-9.6023 21.399-21.467z" fill="#c00"/>
<path d="m81.352 160.06c0-10.493-8.491-19.006-18.963-19.006-10.471 0-18.955 8.5111-18.955 19.006 0 10.503 8.4833 19.018 18.955 19.018 10.472 0 18.963-8.5157 18.963-19.018z" fill="#c00"/>
<path d="m38.514 125.71c0-9.4761-7.6485-17.162-17.111-17.162-9.4654 0-17.126 7.6862-17.126 17.162 0 9.5022 7.6608 17.188 17.126 17.188 9.4608 0 17.111-7.6862 17.111-17.188z" fill="#c00"/>
<path d="m30.566 77.9c0-8.4742-6.8367-15.323-15.277-15.323-8.4388 0-15.289 6.8474-15.289 15.323 0 8.4649 6.8505 15.335 15.289 15.335 8.4403 0 15.277-6.872 15.277-15.335z" fill="#c00"/>
<path d="m51.992 34.966c0-7.109-5.764-12.876-12.848-12.876-7.0883 0-12.843 5.7669-12.843 12.876 0 7.1151 5.7548 12.877 12.843 12.877 7.0837 0 12.848-5.7623 12.848-12.877z" fill="#c00"/>
<path d="m88.669 15.951c0-6.4333-5.1946-11.652-11.611-11.652-6.4146 0-11.618 5.219-11.618 11.652 0 6.4441 5.2054 11.663 11.618 11.663 6.4177 0 11.611-5.219 11.611-11.663z" fill="#c00"/>
<path d="m127.2 9.8147c0-5.4206-4.3721-9.8147-9.7816-9.8147-5.3957 0-9.7862 4.3941-9.7862 9.8147 0 5.4268 4.3905 9.8193 9.7862 9.8193 5.4095 0 9.7816-4.3925 9.7816-9.8193z" fill="#c00"/>
<path d="m306.5 86.493c-7.6347-1.6653-19.307-2.5456-19.307-7.3676 0-3.5399 4.4181-3.8277 7.1513-3.8277 2.0548 0 3.904 0.39709 5.2898 1.2728 1.3566 0.8865 2.1423 2.2624 2.1423 4.411h15.375c-0.59083-13.245-12.246-16.49-23.386-16.49-9.2813 0-21.339 2.8965-23.007 13.144-2.2789-10.436-12.805-13.144-22.932-13.144-9.9903 0-23.727 3.3429-23.727 15.615 0 0.21701 0.03222 0.4017 0.03685 0.61255-3.8749-9.69-13.029-16.228-24.804-16.228-12.736 0-22.258 7.4599-25.478 18.463 2.4615 3.3213 3.7567 7.6538 3.7567 12.177 0 3.7138-0.58928 7.0012-1.7049 9.8793 4.3782 8.1155 12.803 13.384 23.426 13.384 11.285 0 20.139-5.9593 24.27-14.958 2.1699 11.557 13.446 14.958 24.488 14.958 9.4946 0 19.981-3.1197 23.294-11.962 3.4298 9.156 13.643 11.962 23.665 11.962 11.451 0 24.379-4.511 24.379-18.163-0.00155-4.2201-2.6564-11.671-12.929-13.739zm-107.17 19.141c-7.7421 0-10.095-7.6492-10.095-14.139 0-6.4718 2.3526-14.244 10.095-14.244 7.7329 0 10.179 7.7739 10.179 14.244-0.00155 6.4918-2.4462 14.139-10.179 14.139zm48.659 1.9531c-2.3449 0-4.6038-0.57254-6.1722-1.7576-1.6543-1.2759-2.7438-3.1412-2.7438-5.6869h-14.207c0.83022-2.6965 1.2891-5.593 1.2891-8.648 0-1.4252-0.12738-2.8073-0.31307-4.1648 3.8933 6.7335 13.666 7.3891 21.857 9.4699 2.925 0.67873 8.1196 1.4775 8.1196 5.3944 0 4.0324-4.6115 5.3929-7.8295 5.3929zm46.957 0c-2.3434 0-4.6007-0.57254-6.1706-1.7576-1.6543-1.2759-2.7439-3.1412-2.7439-5.6869h-13.569c-0.03527-4.234-2.7208-11.595-12.926-13.65-7.6331-1.6653-18.794-2.5456-18.794-7.3676 0-3.5399 4.9276-3.8277 7.6607-3.8277 2.0564 0 3.904 0.39709 5.2898 1.2728 1.3581 0.8865 2.1423 2.2624 2.1423 4.411h14.763c0.59235 12.857 13.81 13.216 24.058 15.82 2.9265 0.67873 8.1196 1.4775 8.1196 5.3944 0.00155 4.0308-4.6115 5.3914-7.8295 5.3914z" fill="#61615c"/>
<path d="m320.93 55.653h1.4809l2.2283 3.6722h1.444l-2.4109-3.74c1.2384-0.15699 2.1791-0.81572 2.1791-2.3225 0-1.6914-0.97908-2.421-2.9741-2.421h-3.2257v8.4834h1.2783v-3.6722zm0-1.0989v-2.6334h1.754c0.87014 0 1.8415 0.20316 1.8415 1.2543 0 1.3036-0.97139 1.379-2.0548 1.379h-1.5407z" fill="#61615c"/>
<path d="m330.73 55.099c0 4.5864-3.7137 8.2987-8.2853 8.2987-4.5823 0-8.2961-3.7122-8.2961-8.2987 0-4.5972 3.7138-8.3187 8.2961-8.3187 4.5716 0.00153 8.2853 3.7215 8.2853 8.3187zm-8.2869-6.8396c-3.7812 0-6.8321 3.0504-6.8321 6.8396 0 3.7723 3.0508 6.8212 6.8321 6.8212 3.7598 0 6.8106-3.0489 6.8106-6.8212 0.00155-3.7892-3.0508-6.8396-6.8106-6.8396z" fill="#61615c"/>
<path d="m166.09 179.05c-1.6758 0-3.2564-0.8865-4.1726-1.9008v1.5529h-3.2257v-21.432l3.2257-1.6807v8.0524c1.2001-1.1112 2.5904-1.9346 4.3306-1.9346 3.571 0 6.384 2.5995 6.384 8.9405 0 5.7084-3.0968 8.4018-6.542 8.4018zm-0.4435-14.329c-1.55 0-2.9096 1.0466-3.7613 2.1255v7.0059c0.7274 0.98346 2.2436 2.187 3.8872 2.187 2.3387 0 3.6048-1.773 3.6048-5.2929 0-4.1863-1.3274-6.0255-3.7306-6.0255z" fill="#61615c"/>
<path d="m182.49 184.57h-3.4452l2.4017-6.1825-6.1016-16.328h3.5726l2.7178 8.1494c0.50489 1.4575 1.2645 3.9308 1.4533 4.8481 0.28544-0.98193 0.98062-3.3598 1.4855-4.785l2.8145-8.2125h3.4452l-8.3436 22.511z" fill="#61615c"/>
</svg>
